file/paypal.svg

<svg clip-rule="evenodd" fill-rule="evenodd" stroke-linejoin="round" stroke-miterlimit="1.41421" viewBox="0 0 560 400" xmlns="http://www.w3.org/2000/svg"><g fill-rule="nonzero" transform="matrix(2.9823 0 0 2.9823 95.7143 155)"><path d="m46.211 6.749h-6.839c-.466 0-.866.342-.939.802l-2.766 17.537c-.005.029-.007.059-.007.088 0 .313.257.57.57.57h3.266c.466 0 .867-.343.939-.803l.746-4.73c.072-.46.472-.803.938-.803h2.165c4.505 0 7.105-2.18 7.784-6.5.306-1.89.013-3.375-.872-4.415-.972-1.142-2.696-1.746-4.985-1.746zm.789 6.405c-.374 2.454-2.249 2.454-4.062 2.454h-1.032l.724-4.583c.044-.276.284-.481.563-.481h.473c1.235 0 2.4 0 3.002.704.359.42.469 1.044.332 1.906zm19.654-.079h-3.275c-.279 0-.519.205-.563.481l-.145.916-.229-.332c-.709-1.029-2.29-1.373-3.868-1.373-3.619 0-6.71 2.741-7.312 6.586-.313 1.918.132 3.752 1.22 5.031.998 1.176 2.426 1.666 4.125 1.666 2.916 0 4.533-1.875 4.533-1.875l-.146.91c-.005.03-.007.06-.007.09 0 .312.257.57.569.57h2.95c.466 0 .867-.343.939-.803l1.77-11.209c.005-.03.007-.06.007-.09 0-.312-.256-.568-.568-.568zm-4.565 6.374c-.316 1.871-1.801 3.127-3.695 3.127-.951 0-1.711-.305-2.199-.883-.484-.574-.668-1.391-.514-2.301.295-1.855 1.805-3.152 3.67-3.152.93 0 1.686.309 2.184.892.499.589.697 1.411.554 2.317zm22.007-6.374h-3.291c-.315 0-.61.157-.787.417l-4.539 6.686-1.924-6.425c-.121-.401-.493-.678-.912-.678h-3.234c-.001 0-.001 0-.002 0-.312 0-.57.257-.57.57 0 .063.011.125.031.184l3.625 10.638-3.408 4.811c-.068.096-.105.212-.105.33 0 .313.257.57.57.57h3.287c.311 0 .604-.152.781-.408l10.946-15.8c.066-.095.102-.209.102-.325 0-.313-.257-.57-.57-.57z" fill="#253b80"/><path d="m94.992 6.749h-6.84c-.465 0-.866.342-.938.802l-2.766 17.537c-.005.029-.007.059-.007.089 0 .312.257.569.569.569h3.51c.326 0 .606-.24.656-.562l.785-4.971c.072-.46.472-.803.938-.803h2.164c4.506 0 7.105-2.18 7.785-6.5.307-1.89.012-3.375-.873-4.415-.971-1.142-2.694-1.746-4.983-1.746zm.789 6.405c-.373 2.454-2.248 2.454-4.062 2.454h-1.031l.725-4.583c.043-.276.283-.481.562-.481h.473c1.234 0 2.4 0 3.002.704.359.42.468 1.044.331 1.906zm19.653-.079h-3.273c-.279-.001-.52.205-.562.481l-.145.916-.23-.332c-.709-1.029-2.289-1.373-3.867-1.373-3.619 0-6.709 2.741-7.311 6.586-.312 1.918.131 3.752 1.219 5.031 1 1.176 2.426 1.666 4.125 1.666 2.916 0 4.533-1.875 4.533-1.875l-.146.91c-.005.03-.007.06-.007.09 0 .313.257.57.57.57h.001 2.949c.466 0 .866-.343.938-.803l1.771-11.209c.004-.029.007-.058.007-.087 0-.313-.258-.571-.571-.571-.001 0-.001 0-.001 0zm-4.565 6.374c-.314 1.871-1.801 3.127-3.695 3.127-.949 0-1.711-.305-2.199-.883-.484-.574-.666-1.391-.514-2.301.297-1.855 1.805-3.152 3.67-3.152.93 0 1.686.309 2.184.892.501.589.699 1.411.554 2.317zm8.426-12.219-2.807 17.858c-.005.029-.007.059-.007.089 0 .312.257.569.569.569h2.822c.469 0 .867-.34.939-.803l2.768-17.536c.005-.029.007-.059.007-.089 0-.312-.257-.569-.569-.57h-3.16c-.279.001-.519.206-.562.482z" fill="#179bd7"/><path d="m7.266 29.154.523-3.322-1.165-.027h-5.563l3.866-24.513c.024-.154.158-.269.314-.268h9.38c3.114 0 5.263.648 6.385 1.927.526.6.861 1.227 1.023 1.917.17.724.173 1.589.007 2.644l-.012.077v.676l.526.298c.402.203.763.479 1.065.812.45.513.741 1.165.864 1.938.127.795.085 1.741-.123 2.812-.24 1.232-.628 2.305-1.152 3.183-.462.787-1.084 1.468-1.825 2-.696.494-1.523.869-2.458 1.109-.906.236-1.939.355-3.072.355h-.73c-.522 0-1.029.188-1.427.525-.397.341-.661.811-.744 1.328l-.055.299-.924 5.855-.042.215c-.011.068-.03.102-.058.125-.027.022-.061.035-.096.035z" fill="#253b80"/><path d="m23.048 7.667c-.028.179-.06.362-.096.55-1.237 6.351-5.469 8.545-10.874 8.545h-2.752c-.661 0-1.218.48-1.321 1.132l-1.409 8.936-.399 2.533c-.006.036-.009.073-.009.11 0 .386.318.704.704.704h4.881c.578 0 1.069-.42 1.16-.99l.048-.248.919-5.832.059-.32c.09-.572.582-.992 1.16-.992h.73c4.729 0 8.431-1.92 9.513-7.476.452-2.321.218-4.259-.978-5.622-.379-.422-.832-.771-1.336-1.03z" fill="#179bd7"/><path d="m21.754 7.151c-.395-.114-.797-.203-1.203-.267-.803-.123-1.614-.183-2.426-.177h-7.352c-.576 0-1.071.423-1.159.992l-1.564 9.906-.045.289c.1-.649.665-1.132 1.321-1.132h2.752c5.405 0 9.637-2.195 10.874-8.545.037-.188.068-.371.096-.55-.326-.171-.667-.315-1.017-.429-.092-.03-.184-.059-.277-.087z" fill="#222d65"/><path d="m9.614 7.699c.088-.569.583-.993 1.159-.991h7.352c.871 0 1.684.057 2.426.177.502.079.997.197 1.481.353.365.121.704.264 1.017.429.368-2.347-.003-3.945-1.272-5.392-1.399-1.593-3.924-2.275-7.155-2.275h-9.38c-.66 0-1.223.48-1.325 1.133l-3.907 24.765c-.007.042-.01.084-.01.126 0 .442.363.805.805.806h5.791l1.454-9.225z" fill="#253b80"/></g></svg>

<?xml version="1.0" encoding="UTF-8" standalone="no"?>
<!DOCTYPE svg PUBLIC "-//W3C//DTD SVG 1.1//EN" "http://www.w3.org/Graphics/SVG/1.1/DTD/svg11.dtd">
<svg width="100%" height="100%" viewBox="0 0 560 400" version="1.1" xmlns="http://www.w3.org/2000/svg" xmlns:xlink="http://www.w3.org/1999/xlink" xml:space="preserve" xmlns:serif="http://www.serif.com/" style="fill-rule:evenodd;clip-rule:evenodd;stroke-linejoin:round;stroke-miterlimit:1.41421;">
    <g transform="matrix(2.9823,0,0,2.9823,95.7143,155)">
        <path d="M46.211,6.749L39.372,6.749C38.906,6.749 38.506,7.091 38.433,7.551L35.667,25.088C35.662,25.117 35.66,25.147 35.66,25.176C35.66,25.489 35.917,25.746 36.23,25.746L39.496,25.746C39.962,25.746 40.363,25.403 40.435,24.943L41.181,20.213C41.253,19.753 41.653,19.41 42.119,19.41L44.284,19.41C48.789,19.41 51.389,17.23 52.068,12.91C52.374,11.02 52.081,9.535 51.196,8.495C50.224,7.353 48.5,6.749 46.211,6.749ZM47,13.154C46.626,15.608 44.751,15.608 42.938,15.608L41.906,15.608L42.63,11.025C42.674,10.749 42.914,10.544 43.193,10.544L43.666,10.544C44.901,10.544 46.066,10.544 46.668,11.248C47.027,11.668 47.137,12.292 47,13.154ZM66.654,13.075L63.379,13.075C63.1,13.075 62.86,13.28 62.816,13.556L62.671,14.472L62.442,14.14C61.733,13.111 60.152,12.767 58.574,12.767C54.955,12.767 51.864,15.508 51.262,19.353C50.949,21.271 51.394,23.105 52.482,24.384C53.48,25.56 54.908,26.05 56.607,26.05C59.523,26.05 61.14,24.175 61.14,24.175L60.994,25.085C60.989,25.115 60.987,25.145 60.987,25.175C60.987,25.487 61.244,25.745 61.556,25.745L64.506,25.745C64.972,25.745 65.373,25.402 65.445,24.942L67.215,13.733C67.22,13.703 67.222,13.673 67.222,13.643C67.222,13.331 66.966,13.075 66.654,13.075C66.654,13.075 66.654,13.075 66.654,13.075ZM62.089,19.449C61.773,21.32 60.288,22.576 58.394,22.576C57.443,22.576 56.683,22.271 56.195,21.693C55.711,21.119 55.527,20.302 55.681,19.392C55.976,17.537 57.486,16.24 59.351,16.24C60.281,16.24 61.037,16.549 61.535,17.132C62.034,17.721 62.232,18.543 62.089,19.449ZM84.096,13.075L80.805,13.075C80.49,13.075 80.195,13.232 80.018,13.492L75.479,20.178L73.555,13.753C73.434,13.352 73.062,13.075 72.643,13.075L69.409,13.075C69.408,13.075 69.408,13.075 69.407,13.075C69.095,13.075 68.837,13.332 68.837,13.645C68.837,13.708 68.848,13.77 68.868,13.829L72.493,24.467L69.085,29.278C69.017,29.374 68.98,29.49 68.98,29.608C68.98,29.921 69.237,30.178 69.55,30.178L72.837,30.178C73.148,30.178 73.441,30.026 73.618,29.77L84.564,13.97C84.63,13.875 84.666,13.761 84.666,13.645C84.666,13.332 84.409,13.075 84.096,13.075Z" style="fill:rgb(37,59,128);fill-rule:nonzero;"/>
        <path d="M94.992,6.749L88.152,6.749C87.687,6.749 87.286,7.091 87.214,7.551L84.448,25.088C84.443,25.117 84.441,25.147 84.441,25.177C84.441,25.489 84.698,25.746 85.01,25.746L88.52,25.746C88.846,25.746 89.126,25.506 89.176,25.184L89.961,20.213C90.033,19.753 90.433,19.41 90.899,19.41L93.063,19.41C97.569,19.41 100.168,17.23 100.848,12.91C101.155,11.02 100.86,9.535 99.975,8.495C99.004,7.353 97.281,6.749 94.992,6.749ZM95.781,13.154C95.408,15.608 93.533,15.608 91.719,15.608L90.688,15.608L91.413,11.025C91.456,10.749 91.696,10.544 91.975,10.544L92.448,10.544C93.682,10.544 94.848,10.544 95.45,11.248C95.809,11.668 95.918,12.292 95.781,13.154ZM115.434,13.075L112.161,13.075C111.882,13.074 111.641,13.28 111.599,13.556L111.454,14.472L111.224,14.14C110.515,13.111 108.935,12.767 107.357,12.767C103.738,12.767 100.648,15.508 100.046,19.353C99.734,21.271 100.177,23.105 101.265,24.384C102.265,25.56 103.691,26.05 105.39,26.05C108.306,26.05 109.923,24.175 109.923,24.175L109.777,25.085C109.772,25.115 109.77,25.145 109.77,25.175C109.77,25.488 110.027,25.745 110.34,25.745C110.34,25.745 110.341,25.745 110.341,25.745L113.29,25.745C113.756,25.745 114.156,25.402 114.228,24.942L115.999,13.733C116.003,13.704 116.006,13.675 116.006,13.646C116.006,13.333 115.748,13.075 115.435,13.075C115.434,13.075 115.434,13.075 115.434,13.075ZM110.869,19.449C110.555,21.32 109.068,22.576 107.174,22.576C106.225,22.576 105.463,22.271 104.975,21.693C104.491,21.119 104.309,20.302 104.461,19.392C104.758,17.537 106.266,16.24 108.131,16.24C109.061,16.24 109.817,16.549 110.315,17.132C110.816,17.721 111.014,18.543 110.869,19.449ZM119.295,7.23L116.488,25.088C116.483,25.117 116.481,25.147 116.481,25.177C116.481,25.489 116.738,25.746 117.05,25.746L119.872,25.746C120.341,25.746 120.739,25.406 120.811,24.943L123.579,7.407C123.584,7.378 123.586,7.348 123.586,7.318C123.586,7.006 123.329,6.749 123.017,6.748L119.857,6.748C119.578,6.749 119.338,6.954 119.295,7.23Z" style="fill:rgb(23,155,215);fill-rule:nonzero;"/>
        <path d="M7.266,29.154L7.789,25.832L6.624,25.805L1.061,25.805L4.927,1.292C4.951,1.138 5.085,1.023 5.241,1.024L14.621,1.024C17.735,1.024 19.884,1.672 21.006,2.951C21.532,3.551 21.867,4.178 22.029,4.868C22.199,5.592 22.202,6.457 22.036,7.512L22.024,7.589L22.024,8.265L22.55,8.563C22.952,8.766 23.313,9.042 23.615,9.375C24.065,9.888 24.356,10.54 24.479,11.313C24.606,12.108 24.564,13.054 24.356,14.125C24.116,15.357 23.728,16.43 23.204,17.308C22.742,18.095 22.12,18.776 21.379,19.308C20.683,19.802 19.856,20.177 18.921,20.417C18.015,20.653 16.982,20.772 15.849,20.772L15.119,20.772C14.597,20.772 14.09,20.96 13.692,21.297C13.295,21.638 13.031,22.108 12.948,22.625L12.893,22.924L11.969,28.779L11.927,28.994C11.916,29.062 11.897,29.096 11.869,29.119C11.842,29.141 11.808,29.154 11.773,29.154L7.266,29.154Z" style="fill:rgb(37,59,128);fill-rule:nonzero;"/>
        <path d="M23.048,7.667C23.02,7.846 22.988,8.029 22.952,8.217C21.715,14.568 17.483,16.762 12.078,16.762L9.326,16.762C8.665,16.762 8.108,17.242 8.005,17.894L6.596,26.83L6.197,29.363C6.191,29.399 6.188,29.436 6.188,29.473C6.188,29.859 6.506,30.177 6.892,30.177L11.773,30.177C12.351,30.177 12.842,29.757 12.933,29.187L12.981,28.939L13.9,23.107L13.959,22.787C14.049,22.215 14.541,21.795 15.119,21.795L15.849,21.795C20.578,21.795 24.28,19.875 25.362,14.319C25.814,11.998 25.58,10.06 24.384,8.697C24.005,8.275 23.552,7.926 23.048,7.667Z" style="fill:rgb(23,155,215);fill-rule:nonzero;"/>
        <path d="M21.754,7.151C21.359,7.037 20.957,6.948 20.551,6.884C19.748,6.761 18.937,6.701 18.125,6.707L10.773,6.707C10.197,6.707 9.702,7.13 9.614,7.699L8.05,17.605L8.005,17.894C8.105,17.245 8.67,16.762 9.326,16.762L12.078,16.762C17.483,16.762 21.715,14.567 22.952,8.217C22.989,8.029 23.02,7.846 23.048,7.667C22.722,7.496 22.381,7.352 22.031,7.238C21.939,7.208 21.847,7.179 21.754,7.151Z" style="fill:rgb(34,45,101);fill-rule:nonzero;"/>
        <path d="M9.614,7.699C9.702,7.13 10.197,6.706 10.773,6.708L18.125,6.708C18.996,6.708 19.809,6.765 20.551,6.885C21.053,6.964 21.548,7.082 22.032,7.238C22.397,7.359 22.736,7.502 23.049,7.667C23.417,5.32 23.046,3.722 21.777,2.275C20.378,0.682 17.853,0 14.622,0L5.242,0C4.582,0 4.019,0.48 3.917,1.133L0.01,25.898C0.003,25.94 0,25.982 0,26.024C0,26.466 0.363,26.829 0.805,26.83L6.596,26.83L8.05,17.605L9.614,7.699Z" style="fill:rgb(37,59,128);fill-rule:nonzero;"/>
    </g>
</svg>
